brandFactory_export/1.Light/Cocinar_1Light.svg

<?xml version="1.0" encoding="UTF-8"?>
<svg width="24px" height="24px" viewBox="0 0 24 24" version="1.1" xmlns="http://www.w3.org/2000/svg" xmlns:xlink="http://www.w3.org/1999/xlink">
    <title>1.Light/Cocinar_1Light</title>
    <g id="Symbols" stroke="none" stroke-width="1" fill="none" fill-rule="evenodd">
        <g id="1.Light/Cocinar_1Light" fill="#5CB615" fill-rule="nonzero">
            <path d="M21.2840336,18.005042 C21.8117647,17.9983193 22.6991597,17.7865546 22.6991597,16.4722689 C22.6991597,15.1579832 21.8252101,14.9529412 21.3042017,14.9495798 L21.0252101,14.9361345 C20.9882353,16.0487395 20.897479,17.0672269 20.7226891,17.9747899 C20.8201681,17.9848739 21.0789916,18.005042 21.1226891,18.005042 L21.2840336,18.005042 Z M19.8184874,11.7294118 C20.1848739,11.7294118 20.4705882,11.6319328 20.6689076,11.4369748 C20.8739496,11.2352941 20.9781513,10.9361345 20.9781513,10.5462185 C20.9781513,10.1596639 20.8739496,9.8605042 20.6689076,9.65546218 C20.4705882,9.4605042 20.1848739,9.36302521 19.8184874,9.36302521 C19.7142857,9.36302521 19.5798319,9.37647059 19.5495798,9.31932773 C19.502521,9.22857143 19.5697479,9.10084034 19.5697479,8.9394958 C19.5697479,8.36470588 19.4151261,7.91764706 19.1058824,7.61848739 C18.810084,7.32941176 18.389916,7.18151261 17.8453782,7.18151261 C17.3008403,7.18151261 16.8773109,7.32941176 16.5882353,7.61848739 C16.4470588,7.75630252 16.3428571,7.92773109 16.2689076,8.12605042 C16.2554622,8.16638655 16.2453782,8.19327731 16.205042,8.22016807 C16.0941176,8.2907563 15.9596639,8.22352941 15.8117647,8.22352941 C15.2705882,8.22352941 14.8470588,8.36806723 14.5512605,8.65714286 C14.4605042,8.74453782 14.3865546,8.85210084 14.3226891,8.96638655 C14.3092437,8.99327731 14.3058824,9 14.2789916,9.00336134 C14.2554622,9.00336134 14.2453782,8.99663866 14.2252101,8.97647059 C13.9630252,8.71764706 13.5798319,8.58655462 13.092437,8.58655462 C12.605042,8.58655462 12.2252101,8.71764706 11.9596639,8.97647059 C11.8957983,9.04033613 11.8521008,9.13109244 11.8016807,9.21176471 C11.8016807,9.21176471 11.7478992,9.28235294 11.6504202,9.25546218 C11.5764706,9.23865546 11.5462185,9.1512605 11.5462185,9.1512605 C11.4991597,8.85546218 11.4084034,8.59663866 11.2268908,8.42184874 C10.9915966,8.19327731 10.6487395,8.07226891 10.2151261,8.07226891 C9.77815126,8.07226891 9.43865546,8.19327731 9.20336134,8.42184874 C9.12268908,8.50252101 9.05882353,8.6 9.00504202,8.70756303 L8.99495798,8.73109244 C8.99495798,8.73109244 8.94453782,8.80504202 8.8605042,8.83193277 C8.80336134,8.85210084 8.74285714,8.8487395 8.70588235,8.83865546 C8.53109244,8.78487395 8.36302521,8.69747899 8.13109244,8.69747899 C7.76806723,8.69747899 7.48235294,8.79495798 7.28739496,8.98991597 C7.17310924,9.10084034 7.15966387,9.23193277 7.01176471,9.32605042 C6.93781513,9.37310924 6.86722689,9.39327731 6.76638655,9.39327731 C6.40336134,9.39327731 6.1210084,9.4907563 5.92268908,9.68571429 C5.8487395,9.75966387 5.77815126,9.83697479 5.67731092,9.87731092 C5.54285714,9.92773109 5.47563025,9.85714286 5.29411765,9.85714286 C4.99159664,9.85714286 4.75630252,9.93781513 4.59495798,10.0991597 C4.51428571,10.1798319 4.49747899,10.287395 4.38655462,10.3378151 C4.27563025,10.3915966 4.15462185,10.3344538 4.00336134,10.3344538 C3.70420168,10.3344538 3.46890756,10.4184874 3.30756303,10.5798319 C3.1394958,10.7478992 3.05210084,10.989916 3.05210084,11.3092437 L3.05210084,11.7663866 L6.76302521,11.7428571 L9.44537815,11.7428571 C9.4789916,11.7428571 9.50588235,11.7294118 9.53613445,11.7294118 L11.4084034,11.7294118 C11.4420168,11.7327731 11.4655462,11.7428571 11.502521,11.7428571 L14.1512605,11.7428571 L15.8117647,11.7361345 L19.8184874,11.7361345 L19.8184874,11.7294118 Z M20.1176471,14.0588235 C20.1176471,13.9747899 20.1176471,13.2151261 20.1210084,12.697479 L3.4487395,12.697479 L3.4487395,13.8806723 C3.47226891,19.7394958 4.69915966,21.7226891 8.30588235,21.7226891 C8.50420168,21.7226891 8.68907563,21.7092437 8.87394958,21.6991597 L14.6689076,21.6991597 C15.0991597,21.7226891 15.4655462,21.7260504 15.8319328,21.6991597 L15.9764706,21.6991597 C16.0067227,21.6890756 16.0369748,21.6823529 16.0672269,21.6789916 C18.9747899,21.3731092 20.0739496,19.3092437 20.1176471,14.0588235 L20.1176471,14.0588235 Z M2.69579832,17.9882353 C2.75630252,17.9848739 2.80672269,17.9848739 2.86386555,17.9747899 C2.67563025,17.0403361 2.58487395,16.0857143 2.54789916,14.9361345 C2.48403361,14.9428571 2.40672269,14.9462185 2.32268908,14.9462185 C1.80168067,14.9495798 0.927731092,15.1546218 0.927731092,16.4689076 C0.927731092,17.7831933 1.81176471,17.994958 2.3394958,18.0016807 L2.50420168,18.0016807 C2.5512605,18.0016807 2.61512605,17.9983193 2.69579832,17.9882353 L2.69579832,17.9882353 Z M21.307563,14.0084034 C22.3731092,14.0151261 23.6168067,14.6705882 23.6168067,16.4689076 C23.6168067,18.2672269 22.3663866,18.9260504 21.2941176,18.9428571 L21.0991597,18.9394958 C21.0352941,18.9394958 20.6352941,18.9092437 20.487395,18.8957983 C19.8789916,20.9663866 18.6554622,22.3008403 16.3058824,22.5932773 C16.2521008,22.6201681 16.1915966,22.6336134 16.1310924,22.6336134 L15.8621849,22.6336134 C15.687395,22.6470588 15.4823529,22.6571429 15.2638655,22.6571429 C15.0453782,22.6571429 14.8403361,22.6436975 14.6386555,22.6302521 L8.90420168,22.6302521 C8.72941176,22.6436975 8.52436975,22.6537815 8.30252101,22.6537815 C5.29411765,22.6537815 3.79495798,21.2487395 3.08907563,18.892437 L2.85378151,18.9058824 C2.68571429,18.9294118 2.58151261,18.9361345 2.51428571,18.9361345 L2.31932773,18.9394958 C1.25042017,18.9226891 0,18.2638655 0,16.4655462 C0,14.6638655 1.24369748,14.0117647 2.3092437,14.005042 L2.31260504,14.005042 C2.38991597,14.005042 2.44705882,14.005042 2.52436975,14.0151261 C2.52436975,13.9512605 2.5210084,13.9411765 2.5210084,13.8773109 L2.5210084,12.4957983 C2.48403361,12.4655462 2.44033613,12.4521008 2.41008403,12.4184874 C2.23529412,12.2436975 2.14117647,12.0016807 2.14117647,11.7529412 L2.14117647,11.2957983 C2.14117647,10.5697479 2.4302521,10.1294118 2.67563025,9.8907563 C2.90420168,9.66218487 3.3210084,9.39327731 3.98655462,9.38319328 C4.22521008,9.15798319 4.64201681,8.90252101 5.29747899,8.90252101 C5.32436975,8.90252101 5.35462185,8.90252101 5.38823529,8.90588235 C5.62016807,8.70756303 5.98319328,8.50588235 6.51428571,8.45210084 C6.55798319,8.39831933 6.60168067,8.3512605 6.65210084,8.30084034 C6.91092437,8.04537815 7.37478992,7.74621849 8.13445378,7.74621849 C8.26890756,7.74621849 8.4,7.75630252 8.52773109,7.77647059 C8.54117647,7.76302521 8.55462185,7.74957983 8.56470588,7.73613445 C8.84705882,7.45714286 9.36806723,7.1210084 10.2151261,7.1210084 C11.0621849,7.1210084 11.5831933,7.45378151 11.8655462,7.73277311 C11.902521,7.76638655 11.9361345,7.80672269 11.9731092,7.85042017 C12.2655462,7.72268908 12.6319328,7.63529412 13.092437,7.63529412 C13.492437,7.63529412 13.8252101,7.70252101 14.097479,7.80672269 C14.5142857,7.47731092 15.0386555,7.29915966 15.6638655,7.27563025 C15.7478992,7.1512605 15.8420168,7.04033613 15.9428571,6.93277311 C16.4168067,6.47226891 17.0521008,6.23361345 17.8453782,6.23361345 C18.6352941,6.23361345 19.2739496,6.46890756 19.7445378,6.93277311 C20.0336134,7.21848739 20.3697479,7.7092437 20.4638655,8.49915966 C20.8571429,8.60672269 21.1327731,8.80168067 21.307563,8.97647059 C21.5798319,9.24201681 21.902521,9.72941176 21.902521,10.5428571 C21.902521,11.3596639 21.5798319,11.8436975 21.307563,12.112605 C21.2369748,12.1798319 21.1495798,12.2504202 21.0453782,12.3210084 C21.0453782,12.6840336 21.0453782,13.8840336 21.0420168,13.994958 L21.3042017,14.0084034 L21.307563,14.0084034 L21.307563,14.0084034 Z M10.9613445,2.04201681 C9.71764706,2.39831933 9.76134454,3.32605042 9.89915966,3.84705882 L9.94285714,4.00840336 C9.95630252,4.0487395 9.98991597,4.15294118 10.0235294,4.22689076 L12.907563,3.39663866 C12.907563,3.39663866 12.8302521,3.17815126 12.7798319,2.99663866 C12.6285714,2.48907563 12.2016807,1.68235294 10.9613445,2.04201681 Z M2.94453782,7.22521008 C2.74285714,7.22521008 2.56134454,7.0907563 2.50084034,6.88235294 C2.43361345,6.63361345 2.57478992,6.37142857 2.82016807,6.30420168 L9.13277311,4.48907563 C9.09915966,4.40504202 9.07563025,4.33445378 9.05882353,4.28403361 L9.00504202,4.08907563 C8.72605042,3.03697479 9.00840336,1.62857143 10.7058824,1.13781513 C12.4067227,0.650420168 13.3546218,1.69579832 13.6537815,2.73445378 C13.707563,2.91932773 13.7546218,3.1512605 13.7546218,3.1512605 L19.9294118,1.37647059 C20.1714286,1.3092437 20.4268908,1.45042017 20.497479,1.69915966 C20.5680672,1.94789916 20.4235294,2.20672269 20.1781513,2.27731092 L3.06554622,7.20504202 C3.02857143,7.21848739 2.98487395,7.22521008 2.94453782,7.22521008 Z" id="Cocinar_1Light"></path>
        </g>
    </g>
</svg>

<svg width="24" height="24" viewBox="0 0 24 24" xmlns="http://www.w3.org/2000/svg"><path d="M21.284 18.005c.528-.007 1.415-.218 1.415-1.533 0-1.314-.874-1.52-1.395-1.522l-.279-.014c-.037 1.113-.128 2.131-.302 3.039.097.01.356.03.4.03h.161zm-1.466-6.276c.367 0 .653-.097.85-.292.206-.202.31-.5.31-.89 0-.387-.104-.686-.31-.892-.197-.194-.483-.292-.85-.292-.104 0-.238.013-.268-.044-.047-.09.02-.218.02-.38 0-.574-.155-1.021-.464-1.32-.296-.29-.716-.437-1.26-.437-.545 0-.969.147-1.258.436-.14.138-.245.31-.32.508-.013.04-.023.067-.063.094-.11.07-.245.004-.393.004-.541 0-.965.144-1.26.433-.091.088-.165.195-.23.31-.013.026-.016.033-.043.036-.024 0-.034-.006-.054-.027-.262-.258-.645-.39-1.133-.39-.487 0-.867.132-1.132.39-.064.064-.108.155-.158.236 0 0-.054.07-.152.043-.074-.016-.104-.104-.104-.104-.047-.296-.138-.554-.32-.73-.234-.228-.577-.349-1.01-.349-.438 0-.777.121-1.013.35-.08.08-.144.178-.198.286l-.01.023s-.05.074-.134.1a.275.275 0 01-.155.008c-.175-.054-.343-.142-.575-.142-.363 0-.649.098-.844.293-.114.11-.127.242-.275.336a.42.42 0 01-.246.067c-.363 0-.645.098-.843.293-.074.074-.145.151-.246.191-.134.05-.201-.02-.383-.02-.302 0-.538.08-.699.242-.08.08-.098.188-.208.239-.111.054-.232-.004-.384-.004-.299 0-.534.084-.695.246-.169.168-.256.41-.256.73v.456l3.711-.023h2.682c.034 0 .06-.014.091-.014h1.872c.034.004.058.014.095.014h2.648l1.66-.007h4.007v-.007zm.3 2.33c0-.084 0-.844.003-1.362H3.449v1.184c.023 5.858 1.25 7.842 4.857 7.842.198 0 .383-.014.568-.024h5.795c.43.024.797.027 1.163 0h.144a.44.44 0 01.091-.02c2.908-.306 4.007-2.37 4.05-7.62zm-17.422 3.93c.06-.004.11-.004.168-.014-.188-.935-.28-1.89-.316-3.039-.064.007-.141.01-.225.01-.521.004-1.395.209-1.395 1.523 0 1.314.884 1.526 1.411 1.533h.165c.047 0 .111-.004.192-.014zm18.612-3.98c1.065.006 2.309.662 2.309 2.46s-1.25 2.457-2.323 2.474l-.195-.004c-.064 0-.464-.03-.612-.043-.608 2.07-1.832 3.405-4.181 3.697a.392.392 0 01-.175.04h-.269c-.175.014-.38.024-.598.024-.219 0-.424-.013-.625-.027H8.904c-.175.014-.38.024-.601.024-3.009 0-4.508-1.405-5.214-3.762l-.235.014a2.54 2.54 0 01-.34.03l-.195.003C1.25 18.923 0 18.264 0 16.466c0-1.802 1.244-2.454 2.31-2.461h.003c.077 0 .134 0 .211.01 0-.064-.003-.074-.003-.138v-1.381c-.037-.03-.08-.044-.11-.078a.94.94 0 01-.27-.665v-.457c0-.726.29-1.167.535-1.405.228-.229.645-.498 1.31-.508.24-.225.656-.48 1.311-.48.027 0 .058 0 .091.003.232-.198.595-.4 1.126-.454.044-.054.088-.1.138-.151.259-.256.723-.555 1.482-.555.135 0 .266.01.394.03a.403.403 0 00.037-.04c.282-.279.803-.615 1.65-.615.847 0 1.368.333 1.65.612.038.033.071.074.108.117a2.762 2.762 0 011.12-.215c.4 0 .732.068 1.004.172.417-.33.942-.508 1.567-.531.084-.125.178-.236.279-.343.474-.46 1.11-.7 1.902-.7.79 0 1.429.236 1.9.7.289.285.625.776.719 1.566.393.108.669.303.844.477.272.266.595.753.595 1.567 0 .817-.323 1.3-.595 1.57a2.04 2.04 0 01-.263.208c0 .363 0 1.563-.003 1.674l.262.013h.004zM10.96 2.041c-1.243.356-1.2 1.284-1.062 1.805l.044.161c.013.04.047.145.08.219l2.885-.83s-.078-.219-.128-.4c-.151-.508-.578-1.315-1.819-.955zM2.945 7.225a.47.47 0 01-.124-.921L9.132 4.49a3.536 3.536 0 01-.074-.205l-.054-.195c-.279-1.052.003-2.46 1.7-2.951 1.702-.488 2.65.558 2.949 1.596.054.185.1.417.1.417l6.175-1.775a.463.463 0 01.568.323.469.469 0 01-.319.578L3.066 7.205a.366.366 0 01-.121.02z" fill="#5CB615" fill-rule="nonzero"/></svg>
